X:167
T:Sweet Georgia Brown
C:Jethro
N:TablEdited by Jim Nikora
L:1/8
Q:1/4=200
M:4/4
K:C
|: "D7"[DD][DD] [E2^C2] [^F2=C2] [DC][FC] | A[^F3C3] B[F3C3] | [d4^F4C4] [BFC]A [F2C2] | 
[DD][DD] [D2^C2] [D4=C4] | "G7"[DB,][DB,] [E2B,2] [F2B,2] (3[DB,]EF | A[F3B,3] B[F3B,3] | 
[d4F4B,4] [BFB,]B [A2F2B,2] | [GB,][GB,] [G2B,2] [G4B,4] |1 "C7"[EC][EC] [D2B,2] [E2_B,2] CE | 
[GC][E3C3] A[E3C3] | [c4E4] GE3 | C2 CC DC D2 | "F"[F4C4] [F4C4] | z2 CC DC D2 | 
[F4C4] [F4C4] | "A7"[G^C][GC] [G2C2] [G4C4] :|2 "Dm"AF3 DF A2 | "A7"GE3 [A4E4^C4] | 
"Dm"AF3 DF A2 | "A7"GE3 [A4E4^C4] | "F"CC [D2C2] [F2C2] [A2F2C2] | "D7"[cFC][A3F3C3] [dFC][A3F3C3] | 
"G7"G4 "C7"[cG][AG] G2 | "F"[F8A,8] | 


